X: 36287
T: Seamus Cooley's
R: jig
M: 6/8
K: Gmajor
|:"G"BAB G2 D|"G"B,DD D3|"G"DEG AGE|"C"GAB "D7"AGA|
"G"BAB G2 D|"G"B,DD D3|"G"DEG "D7"AGE|"G"GAG G2 A:|
|:"G"BAB d2 B|"G"d2 e dBA|"G"G2 B AGE|"C"GAB "D7"A2 A|
"G"BAB d2 B|"G"d2 e dBA|"G"G2 B "C"AGE|1 "D7"GAG "G"G2 A:|2 "D7"GAG "G"G3||

